Gruvbox-Plus-Dark/emotes/symbolic/face-uncertain-symbolic.svg

<svg width="16" height="16" version="1.1" xmlns="http://www.w3.org/2000/svg">
  <path d="m8 1c-3.87 0-7 3.13-7 7 0 3.86 3.13 7 7 7s7-3.14 7-7c0-3.87-3.13-7-7-7zm-3 4c0.55 0 1 0.45 1 1s-0.45 1-1 1-1-0.45-1-1 0.45-1 1-1zm6 0c0.55 0 1 0.45 1 1s-0.45 1-1 1-1-0.45-1-1 0.45-1 1-1zm0.69 4.53c0.21-0.01 0.64 0.03 0.84 0.4 0.27 0.5-0.34 1.13-0.34 1.13s-4.95 1.35-4.97 1.34c-0.39-0.2-0.63-0.63-0.19-1.06 0.2848-0.09492 4.582-1.81 4.66-1.81z" fill="#ebdbb2"/>
</svg>

<svg xmlns="http://www.w3.org/2000/svg" width="16" height="16" version="1.1">
 <path style="fill:#ebdbb2" d="M 8,1 C 4.13,1 1,4.13 1,8 1,11.86 4.13,15 8,15 11.87,15 15,11.86 15,8 15,4.13 11.87,1 8,1 Z M 5,5 C 5.55,5 6,5.45 6,6 6,6.55 5.55,7 5,7 4.45,7 4,6.55 4,6 4,5.45 4.45,5 5,5 Z M 11,5 C 11.55,5 12,5.45 12,6 12,6.55 11.55,7 11,7 10.45,7 10,6.55 10,6 10,5.45 10.45,5 11,5 Z M 11.69,9.53 C 11.9,9.52 12.33,9.56 12.53,9.93 12.8,10.43 12.19,11.06 12.19,11.06 12.19,11.06 7.24,12.41 7.22,12.4 6.83,12.2 6.59,11.77 7.03,11.34 7.06,11.33 11.56,9.58 11.56,9.56 11.56,9.55 11.62,9.53 11.69,9.53 Z"/>
</svg>
